svgs/comic_geeks.svg

<svg xmlns="http://www.w3.org/2000/svg" viewBox="0 0 192 192"><path d="m63.162 146.205-42.368-22.812-.228-29.986c-.22-29.096-.278-30-1.945-30.436-1.639-.428-1.718-1.213-1.718-17.08v-16.63l10.592-1.117c5.826-.615 10.981-1.396 11.457-1.737.982-.704 14.963-2.272 27.341-3.068 6.863-.441 16.849.392 57.067 4.761 26.812 2.913 49.625 5.482 50.695 5.709l1.945.414v40.486l-1.945.276-1.946.276-.225 39.055-.225 39.055-32.016 7.853c-17.608 4.319-32.487 7.839-33.064 7.823-.577-.016-20.114-10.295-43.417-22.842Zm71.941 12.906c14.634-3.578 28.071-6.901 29.861-7.383l3.254-.876v-36.715c0-30.517-.2-36.714-1.185-36.714-.652 0-13.867 2.334-29.368 5.188-15.5 2.853-28.974 5.188-29.942 5.188-1.744 0-1.76.35-1.76 38.909 0 33.602.173 38.91 1.267 38.91.697 0 13.24-2.928 27.873-6.507Zm-8.347-37.513c-.802-1.498-.477-1.753 3.208-2.515 2.255-.466 8.312-1.722 13.46-2.79 5.148-1.068 9.914-2.497 10.592-3.175.686-.687 1.232-2.887 1.232-4.969 0-3.421.919-4.786 3.22-4.786.585 0-.34 9.489-1.123 11.531-.609 1.587-5.113 3.051-17.661 5.741-4.517.969-9.074 1.957-10.125 2.196-1.304.296-2.194-.095-2.803-1.233Zm-2.16-13.768c1.124-.986 32.178-7.284 33.491-6.792 1.656.62-.254 1.117-17.106 4.445-16.858 3.33-17.632 3.441-16.385 2.347Zm-21.227 17.311V86.393L65.108 75.744 25.322 64.67c-1.438-.401-1.512 1.216-1.297 28.38l.228 28.805 39.341 21.014c21.639 11.558 39.44 21.015 39.559 21.017.118.002.216-17.434.216-38.745ZM139.2 78.272c16.198-2.861 30.326-5.398 31.396-5.636 1.936-.432 1.945-.517 1.945-17.224v-16.79l-3.242.483c-1.783.265-3.745 1.116-4.358 1.891-1.598 2.016-13.117 3.754-14.881 2.246-1.778-1.521-17.226.804-18.791 2.829-1.415 1.83-14.586 3.843-15.775 2.41-.448-.54-2.193-.821-3.876-.625l-3.061.358v17.63c0 9.697.268 17.631.597 17.631.328 0 13.849-2.341 30.046-5.203Zm-34.102-13.387c0-9.749-.161-17.725-.358-17.725-.197 0-19.296-3.113-42.443-6.918-23.146-3.804-42.245-6.917-42.442-6.917-.197 0-.358 5.984-.358 13.298V59.92l8.43 2.291c4.637 1.261 23.216 6.339 41.288 11.286 18.071 4.947 33.538 9.022 34.37 9.054 1.394.055 1.513-1.338 1.513-17.666Zm20.027-18.126c2.481-.337 4.23-1.068 4.551-1.903.451-1.176-.144-1.277-4.463-.76-7.993.959-9.083 1.338-7.911 2.751.556.669 1.636 1.046 2.401.837.765-.208 3.205-.625 5.422-.925Zm10.448-6.968c14.146-2.129 26.176-3.872 26.733-3.872.557 0 .806-.206.553-.459-.252-.253-20.421-2.79-44.818-5.639-41.861-4.887-44.85-5.128-53.078-4.284-19.224 1.974-41.149 4.912-41.845 5.608-.248.248-.094.465.342.482.436.018 19.08 2.883 41.431 6.368 22.352 3.485 41.612 6.186 42.801 6.002 1.189-.183 13.736-2.076 27.881-4.206Zm24.131 1.775c1.738-.278 3.396-1.124 3.686-1.879.453-1.181-.049-1.294-3.591-.809-8.213 1.127-9.046 1.413-7.952 2.731.553.666 1.836 1.042 2.852.837 1.015-.206 3.268-.602 5.005-.88Z"/></svg>

<svg
    xmlns="http://www.w3.org/2000/svg"
    viewBox="0 0 192 192"
    id="vector">
    <g id="group">
        <path
            id="path_6"
            d="M 63.162 146.205 L 20.794 123.393 L 20.566 93.407 C 20.346 64.311 20.288 63.407 18.621 62.971 C 16.982 62.543 16.903 61.758 16.903 45.891 L 16.903 29.261 L 27.495 28.144 C 33.321 27.529 38.476 26.748 38.952 26.407 C 39.934 25.703 53.915 24.135 66.293 23.339 C 73.156 22.898 83.142 23.731 123.36 28.1 C 150.172 31.013 172.985 33.582 174.055 33.809 L 176 34.223 L 176 74.709 L 174.055 74.985 L 172.109 75.261 L 171.884 114.316 L 171.659 153.371 L 139.643 161.224 C 122.035 165.543 107.156 169.063 106.579 169.047 C 106.002 169.031 86.465 158.752 63.162 146.205 Z M 135.103 159.111 C 149.737 155.533 163.174 152.21 164.964 151.728 L 168.218 150.852 L 168.218 114.137 C 168.218 83.62 168.018 77.423 167.033 77.423 C 166.381 77.423 153.166 79.757 137.665 82.611 C 122.165 85.464 108.691 87.799 107.723 87.799 C 105.979 87.799 105.963 88.149 105.963 126.708 C 105.963 160.31 106.136 165.618 107.23 165.618 C 107.927 165.618 120.47 162.69 135.103 159.111 Z M 126.756 121.598 C 125.954 120.1 126.279 119.845 129.964 119.083 C 132.219 118.617 138.276 117.361 143.424 116.293 C 148.572 115.225 153.338 113.796 154.016 113.118 C 154.702 112.431 155.248 110.231 155.248 108.149 C 155.248 104.728 156.167 103.363 158.468 103.363 C 159.053 103.363 158.128 112.852 157.345 114.894 C 156.736 116.481 152.232 117.945 139.684 120.635 C 135.167 121.604 130.61 122.592 129.559 122.831 C 128.255 123.127 127.365 122.736 126.756 121.598 Z M 124.596 107.83 C 125.72 106.844 156.774 100.546 158.087 101.038 C 159.743 101.658 157.833 102.155 140.981 105.483 C 124.123 108.813 123.349 108.924 124.596 107.83 Z M 103.369 125.141 L 103.369 86.393 L 65.108 75.744 C 44.064 69.887 26.16 64.904 25.322 64.67 C 23.884 64.269 23.81 65.886 24.025 93.05 L 24.253 121.855 L 63.594 142.869 C 85.233 154.427 103.034 163.884 103.153 163.886 C 103.271 163.888 103.369 146.452 103.369 125.141 Z M 139.2 78.272 C 155.398 75.411 169.526 72.874 170.596 72.636 C 172.532 72.204 172.541 72.119 172.541 55.412 L 172.541 38.622 L 169.299 39.105 C 167.516 39.37 165.554 40.221 164.941 40.996 C 163.343 43.012 151.824 44.75 150.06 43.242 C 148.282 41.721 132.834 44.046 131.269 46.071 C 129.854 47.901 116.683 49.914 115.494 48.481 C 115.046 47.941 113.301 47.66 111.618 47.856 L 108.557 48.214 L 108.557 65.844 C 108.557 75.541 108.825 83.475 109.154 83.475 C 109.482 83.475 123.003 81.134 139.2 78.272 Z M 105.098 64.885 C 105.098 55.136 104.937 47.16 104.74 47.16 C 104.543 47.16 85.444 44.047 62.297 40.242 C 39.151 36.438 20.052 33.325 19.855 33.325 C 19.658 33.325 19.497 39.309 19.497 46.623 L 19.497 59.92 L 27.927 62.211 C 32.564 63.472 51.143 68.55 69.215 73.497 C 87.286 78.444 102.753 82.519 103.585 82.551 C 104.979 82.606 105.098 81.213 105.098 64.885 Z M 125.125 46.759 C 127.606 46.422 129.355 45.691 129.676 44.856 C 130.127 43.68 129.532 43.579 125.213 44.096 C 117.22 45.055 116.13 45.434 117.302 46.847 C 117.858 47.516 118.938 47.893 119.703 47.684 C 120.468 47.476 122.908 47.059 125.125 46.759 Z M 135.573 39.791 C 149.719 37.662 161.749 35.919 162.306 35.919 C 162.863 35.919 163.112 35.713 162.859 35.46 C 162.607 35.207 142.438 32.67 118.041 29.821 C 76.18 24.934 73.191 24.693 64.963 25.537 C 45.739 27.511 23.814 30.449 23.118 31.145 C 22.87 31.393 23.024 31.61 23.46 31.627 C 23.896 31.645 42.54 34.51 64.891 37.995 C 87.243 41.48 106.503 44.181 107.692 43.997 C 108.881 43.814 121.428 41.921 135.573 39.791 Z M 159.704 41.566 C 161.442 41.288 163.1 40.442 163.39 39.687 C 163.843 38.506 163.341 38.393 159.799 38.878 C 151.586 40.005 150.753 40.291 151.847 41.609 C 152.4 42.275 153.683 42.651 154.699 42.446 C 155.714 42.24 157.967 41.844 159.704 41.566 Z"
            fill="#000000"
            stroke-width="12"/>
    </g>
</svg>
